!!!COM:	Bach, Johann Sebastian
!!!CDT:	1685/02/21/-1750/07/28/
!!!OTL@@DE:	Jesu Leiden, Pein und Tod
!!!SCT:	BWV 159/5
!!!PC#:	61
!!!AGN:	chorale
**kern	**kern	**kern	**kern
*ICvox	*ICvox	*ICvox	*ICvox
*Ibass	*Itenor	*Ialto	*Isoprn
*I"Bass	*I"Tenor	*I"Alto	*I"Soprano
*clefF4	*clefGv2	*clefG2	*clefG2
*k[b-e-a-]	*k[b-e-a-]	*k[b-e-a-]	*k[b-e-a-]
*E-:	*E-:	*E-:	*E-:
*M4/4	*M4/4	*M4/4	*M4/4
*met(c)	*met(c)	*met(c)	*met(c)
*MM100	*MM100	*MM100	*MM100
=1-	=1-	=1-	=1-
4E-	4B-	4e-	4g
4BB-	8B-L	4d	4f
.	8A-J	.	.
4C	4G	8dL	4e-
.	.	8cJ	.
4D	4F	8cL	4f
.	.	8B-J	.
=2	=2	=2	=2
4E-	8E-L	4B-	4g
.	8e-J	.	.
4F	8e-L	4A-	4a-
.	8d-J	.	.
2G;	2d-;	2e-;	2b-;
=3	=3	=3	=3
4A-	4c	8e-L	4cc
.	.	8a-J	.
4B-	4dnX	8a-L	4b-
.	.	8gJ	.
4c	8e-L	8gL	4a-
.	8dJ	8fJ	.
8B-L	8e-L	4e-	8gL
8A-J	8cJ	.	8fJ
=4	=4	=4	=4
4B-	4.B-	4e-	2f
4BB-	.	4d	.
.	8A-	.	.
2E-;	2G;	2B-;	2e-;
=5	=5	=5	=5
8E-L	4B-	4e-	4g
8DJ	.	.	.
8DL	4B-	4f	4b-
8CJ	.	.	.
[2C	8cL	8e-L	4a-
.	8dJ	8fJ	.
.	8e-L	8gL	4g
.	8cJ	8e-J	.
=6	=6	=6	=6
8CL]	8A-L	4d	4f
8BBJ	8GJ	.	.
8CL	4G	4c	4e-
8E-J	.	.	.
2G;	2G;	2B;	2d;
=7	=7	=7	=7
8CL	4G	4c	4e-
8cJ	.	.	.
8B-XL	4B-X	4d	4f
8A-J	.	.	.
8GL	4B-	4e-	4g
8FJ	.	.	.
8E-L	4B-	[4e-	4g
8DJ	.	.	.
=8	=8	=8	=8
8CL	8cL	8e-L]	2a-
8F	8A-	16dL	.
.	.	16e-JJ	.
8D	8F	8fL	.
8BB-J	8B-J	8dJ	.
2E-;	2B-;	2e-;	2g;
=9	=9	=9	=9
4C	4c	4e-	4g
8BB-L	4c	4e-	4a-
8AA-J	.	.	.
8GG	4B-	4e	4b-
4G	.	.	.
.	4c	4f	4a-
[8F	.	.	.
=10	=10	=10	=10
8FL]	4B-	8d-L	4g
8EJ	.	8cJ	.
4F	4A-	8cL	4f
.	.	8dJ	.
2C;	2G;	2e;	2g;
=11	=11	=11	=11
8FL	8A-L	4c	4f
8GJ	8B-J	.	.
4A-	8cL	8cL	4f
.	8B-J	8dJ	.
4G	4.B-	4e-	8gL
.	.	.	8aJ
4G-	.	8d-L	4b-
.	8c	8e-J	.
=12	=12	=12	=12
8FL	4d-	2f	4b-
8E-J	.	.	.
4F	4c	.	4a
2BB-;	2d;	2f;	2b-;
=13	=13	=13	=13
8DL	4B-	4f	4b-
8BB-J	.	.	.
4E-	4B-	8e-L	4g
.	.	8fJ	.
8E-L	4e-	4g	4cc
8CJ	.	.	.
4G	8dL	4g	4b-
.	8B-J	.	.
=14	=14	=14	=14
8GL	8cL	8e-L	4a-
8FJ	8dJ	8fJ	.
8GL	4e-	8B-L	4g
8A-J	.	8cJ	.
2B-;	2B-;	2d;	2f;
=15	=15	=15	=15
4.E-	8B-L	4.e-	8gL
.	8A-J	.	8a-J
.	8GL	.	4b-
8D	8FJ	8B-	.
4C	8E-L	8e-L	4a-
.	8DJ	8fJ	.
8BB-L	4E-	8gL	8gL
8AA-J	.	8cJ	8fJ
=16	=16	=16	=16
2BB-	4.B-	8dL	2f
.	.	16e-L	.
.	.	16cJJ	.
.	.	4d	.
.	8A-	.	.
2EE-;	2G;	2B-;	2e-;
==	==	==	==
*-	*-	*-	*-
!!!hum2abc: -Q ''
!!!title: @{PC#}. @{OTL@@DE}
!!!YOR1: 371 vierstimmige Choralges&auml;nge von Johann Sebastian Bach, 
!!!YOR2: 4th ed. by Alfred D&ouml;rffel (Leipzig: Breitkopf und H&auml;rtel, 
!!!YOR2: c.1875). 178 pp. Plate "V.A.10".  reprint: J.S. Bach, 371 Four-Part 
!!!YOR4: Chorales (New York: Associated Music Publishers, Inc., c.1940).
!!!SMS: B&H, 4th ed, Alfred D&ouml;rffel, c.1875, plate V.A.10
!!!EED:  Craig Stuart Sapp
!!!EEV:  2009/05/22
